X:1
T:Donegal Cradle Song
T:Spike Hughes     arr. Dempsey
%%score 1 2 3 4
L:1/8
Q:1/4=96
M:4/4
K:A
V:1 treble nm="Violins 1"
V:2 treble nm="Violins 2"
V:3 alto nm="Viola"
V:4 bass nm="Violoncello"
V:1
{/B} c e2"^omit higher note 1st time" [ef]3 [ef]>[de] | c A2 B3 z2 |{/B} c e2 =g3 g>g | %3
 f d2 e3 z d | c>d e2 e3 z/ d/ | e2 d2 A2 F2 | DFA^c B2 AA | A6 z A :|[K:C] [FB][FB][FB] [FB]4 G | %9
 [E_B][EB][EB] [EB]4 E | [FB]>[FB] [FB]>[FB] [GB]3 d | (3:2:2g2 f B2{/_B} A3 c | %12
 [G_B]3/2[GB] [GB]2 [GB]3 [GB]/ | [G_B]>[GB]- [GB]2 [=EG]2 [Gd]2 | cB_BG c2 =Bc | B c2 d4 d | %16
 c e2 e3 e>d | c A2 B3 z2 |{/B} c e2 g3 g>g | ^f d2 e3 z d | ^c>d e2 e3 z/ d/ | e2 d2 A2 ^F2 | %22
 D^FA^c B2 EA- | A6 z2 |[K:C] z2 [EA]4 z2 | [EA]4 [EB]4 |:[K:C]!p! [ea]2 [ea]2 [eg]2 [eg]2 | %27
 [e^f]2 [ef]2 [de]2 [de]2 | [ea]2 [ea]2 [eg]2 [eg]2 | [e^f]2 [ef]2 [de]2 [de]2 | %30
 [Ae]2 [Ae]2 [Ge]2 [Ge]2 | [^Fe]2 [Fe]2 [=FA]2 [FA]2 | [FA]2 [FA]2 [DE]2 [DE]2 |1 [Ae]6 z2 :|2 %34
 [Ae]6 e!ff!f |: g>g g>g- g3 g | _a3 g/f/ e c3 |{/d} ega_b- bb-bb | af-fg- g4 | e e3 e3 e | %40
 e3 d/c/ d/c/A- A(d | e)g-ge c2 c2 |1 c4 z e^e^f :|2{/d} eg-ge c2 c2 ||{/d} eg-ge c2 c2 | %45
"^d.c." c8 |] %46
V:2
 A,2 A,2 =C2 C2 | A,2 E2 G2 E2 | A,2 A,2 =C2 C2 | A,2 F2 G2 E2 | [Ac]2 [Ac]2 [ce]2 [ce]2 | %5
 =c2 _B2 F2 E2 | D2 F2 G2 AE | E2 F2 E2 z2 :|[K:C] ddd [dg]4 f | ddd [ce]4 c | d>d d>d [dg]3 f | %11
 (3:2:2b2 a g2{/_f} _e3 c | [de]>[de] [de]2 g3 f | d>d d2 c2 d2 | cdeg a2 ge | g a2 b4 z | %16
 A A3 c c3 | A E3 ^G E3 | A A3 c c3 | A ^F3 ^G E3 | [A^c]4 [ce]4 | c2 _B2 ^F2 E2 | D2 ^F2 ^G2 DE- | %23
 E2 ^F2 E2 z z |[K:C] A c2 e3 dc | d c2 B2 E2 z |:[K:C] A4 G4 | ^F4 E4 | A4 G4 | ^F4 D4 | A4 G4 | %31
 ^F4 =F4 | D2 F2 c2 B2 |1 [EA]6 z2 :|2 [EA]6 cd |:!p! e>e e>e- e3 e | f3 e/d/ c G3 | %37
{/_B} cefg- gg-gg | fc-ce- e4 | c c3 c3 c | c3 c/A/ c/A/^F- F(=B | c)e-ec A2 A2 |1 G4 z cd^d :|2 %43
{/B} ce-ec A2 A2 ||{/B} ce-ec A2 A2 | G8 |] %46
V:3
 !>!E,2 !>!E,2 !>!F,2 !>!F,2 | !>!E,2 !>!A,2 !>!B,2 !>!B,2 | !>!E,2 !>!E,2 !>!E,2 !>!E,2 | %3
 !>!F,2 D,2 B,2 B,2 | [E,A,]2 [E,A,]2 [A,C]2 [A,C]2 | F,2 E,2 C,2 A,2 | D,2 D,2 E,2 A,A, | %7
 A,2 D2 A,2 z2 :|[K:C] [DF]2 [DF]2 [FG]4 | [CG]2 [CG]2 [CE]4 | [B,F]2 [B,F]2 [DG]4 | %11
 Bc G2{/_G} F3 A | [EG]2 [EG]2 [EG]2 [EG]2 | [_EG]>[EG]- [EG]2 [C=E]2 F2 | =E2 C2 E2 E2 | %15
 D G2 F4 z | E E3 ^F F3 | E A,3 B, B,3 | E E3 E E3 | ^F D3 B, B,3 | [EA]4 [A^c]4 | ^F2 E2 ^C2 A,2 | %22
 D4 E2 EA,- | A,2 D2 A,2 z2 |[K:C] [A,E]4 [FB]4 | z2 [B,E]4 z2 |: %26
[K:C]!fff! (3:2:2A,2 B, CD E3 D/C/ | (3:2:2D2 B, (3DB,G,{/F,} E,3 z | z E, (3A,B,C E/A/E- E2 | %29
 DCB,D E3 D | CA,- A,4- A,A, | (3:2:2D2 C DE (3:2:2D2 C A,F, | D,E,F,A, ^G,E,G,D |1 C2 A,4 CB, :|2 %34
[K:treble] C2 A,4 z2 |:!f! [Ec]2 [Ec]2 [Ec]2 [Ec]2 |[K:alto] _d3 c/_B/ G E3 |{/F} Gccd- dd-dd | %38
 cA-Ac- c4 | A A3 _A3 A | G3 ^F/D/ F/D/C- CE | [EG]2 [EG]2 [FA]2 [FA]2 |1 E4 B,4 :|2 %43
 [EG]2 [EG]2 [FA]2 [FA]2 || [E,G,] [E,G,]3 [F,A,]2 [F,A,]2 | [C,E,]8 |] %46
V:4
 !>!A,,4 !>!D,4 | !>!E,2 !>!A,,2 !>!E,,4 | !>!A,,4{/B,,} !>!=C,4 | !>!D,4 E,,2 E,2 | C,4 A,,2 E,2 | %5
 D,2 =C,2 F,,2 A,,2 | [D,A,]4 [E,B,]4 | [A,,E,]4 z2 z2 :|[K:C] G,,4 D,2 G,,2 | C,4 C,2 A,,2 | %10
 G,,4 F,2 G,2 | C,2 E,2 F,2 F,,2 | C,4 G,2 E,2 | _E,,2 E,,2 C,2 G,,2 | C,2 _B,,2 A,,2 A,,2 | %15
 G,,2 =A,,2 B,,2 D,2 | A,,2 E,2 A,2 ^F,2 | E,2 A,,2 B,,2 E,,2 | A,,2 E,2 C,2 G,2 | %19
 E,2 A,,2 E,2 D,2 | A,,2 A,2 G,2 A,,2 | D,2 C,2 ^F,,2 ^C,2 | D,4 E,2 B,,2 | A,,2 z2 z2 [A,,E,]2- | %24
[K:C] [A,,E,]2 A,,2 z2 [A,,D,]2- | [A,,D,]2 z2 z4 |:[K:C] A,,2 E,2 G,2 G,,2 | ^F,,2 D,2 E,2 B,,2 | %28
 A,,2 C,2 E,2 A,,2 | D,2 B,,2 E,2 D,2 | C,2 A,,2 E,2 G,,2 | ^F,,2 A,,2 D,2 =F,2 | %32
 =F,,2 A,,2 E,2 C,B,, |1 A,,2 E,,2 ^F,,2 ^G,,2 :|2 A,,2 E,,2 ^F,,2 ^G,,2 |: [C,G,]4 [E,G,]4 | %36
 [_D,_A,]4 C,2 G,,2 | C,2 G,2 _E,2 _B,,2 | A,,2 F,,2 G,,2 _A,,2 | =A,,2 A,,2 _A,,2 A,,2 | %40
 G,,2 G,,2 ^F,,2 D,2 | E,2 C,2 A,,2 =F,,2 |1 C,4 E,4 :|2 E,2 C,2 A,,2 =F,,2 || E,2 C,2 A,,2 =F,,2 | %45
 C,8 |] %46

